frontend/public/svg/health/wheelchair.svg

<svg width="157" height="157" viewBox="0 0 157 157" fill="none" xmlns="http://www.w3.org/2000/svg">
<g clip-path="url(#clip0)">
<path d="M43.6725 38.7971C55.7255 39.0183 67.3943 39.1593 79.0594 39.4651C92.3043 39.8123 105.546 40.2916 118.788 40.7464C123.207 40.8987 124.826 42.2055 125.002 46.5563C125.403 56.6482 125.818 66.7543 125.686 76.8481C125.567 85.9292 124.729 95.0018 124.21 104.078C124.197 104.299 124.205 104.522 124.21 104.744C124.275 107.207 123.624 110.023 124.613 112.029C125.513 113.854 128.341 114.637 130.061 116.171C133.404 119.157 136.607 122.303 139.786 125.465C142.421 128.085 142.338 128.065 145.77 126.563C147.809 125.651 149.922 124.912 152.085 124.356C153.663 123.962 155.319 124.305 156.079 126.043C156.839 127.781 156.505 129.619 154.918 130.547C151.272 132.714 147.503 134.668 143.629 136.397C141.751 137.221 139.916 136.043 138.491 134.632C135.699 131.868 132.957 129.053 130.151 126.303C128.572 124.755 126.906 123.294 124.677 121.239C124.991 125.489 125.242 128.875 125.502 132.392C126.437 132.928 127.431 133.432 128.356 134.04C133.935 137.708 135.105 143.676 131.303 149.167C128.395 153.367 124.309 155.093 119.337 154.234C115.051 153.493 111.847 151.123 110.787 146.689C109.722 142.231 111.408 138.55 114.57 135.455C115.253 134.848 115.973 134.283 116.726 133.764V121.236H88.5861C87.9954 123.61 87.5301 126.02 86.7871 128.339C83.596 138.297 78.1537 146.538 68.6256 151.545C63.1388 154.427 57.1734 155.449 51.0793 155.634C37.734 156.043 25.1467 153.398 15.3929 143.684C3.07474 131.415 -2.84343 116.839 2.55231 99.3284C4.85803 91.8461 9.51791 85.7737 15.5326 80.8393C20.7597 76.5515 26.4167 72.9167 33.0142 71.0048C33.6316 70.7639 34.2309 70.4784 34.8074 70.1515C34.8074 66.6441 34.7956 63.058 34.8074 59.4724C34.8579 46.4454 34.854 33.4158 35.0338 20.3914C35.0647 18.1369 34.1988 17.092 32.2554 16.5151C25.5993 14.5386 18.9451 12.5566 12.2929 10.5692C11.4351 10.3133 10.5471 10.1354 9.72013 9.8033C6.91952 8.67965 5.54576 6.59704 6.13975 4.48035C6.80002 2.13001 9.17931 0.817329 12.0915 1.39031C14.176 1.80118 16.2192 2.43206 18.2716 2.99783C23.2387 4.3676 28.2294 5.66183 33.152 7.17798C35.6096 7.94836 37.9935 8.9368 40.2752 10.1315C43.1447 11.6194 44.191 14.1115 44.0262 17.4011C43.6902 24.1259 43.6193 30.8651 43.4585 37.5985C43.4869 38.0045 43.5586 38.4064 43.6725 38.7971ZM117.635 64.7835C92.3831 66.6572 67.5177 64.853 42.4471 64.9652C42.3578 66.5148 42.2778 67.9003 42.1978 69.2911C46.0944 69.9664 49.5946 70.8932 53.1415 71.1334C70.1306 72.2859 84.6796 86.2568 88.0919 102.408C88.8034 105.776 89.1217 109.227 89.6081 112.55H116.74C117.041 96.5127 117.334 80.8557 117.635 64.7835ZM50.7938 146.014C52.3789 145.837 55.4104 145.647 58.3843 145.129C62.4254 144.424 66.1678 142.878 69.0693 139.865C73.0178 135.766 76.0061 131.052 77.2906 125.436C78.7739 119.431 79.1099 113.198 78.2797 107.068C76.5515 95.5236 70.1109 87.534 59.5151 83.1398C55.3428 81.4097 50.6421 80.9699 46.2 79.8686C36.5519 77.4769 28.6587 80.6995 21.6319 87.2196C16.754 91.745 12.8049 96.8363 11.2986 103.392C8.28931 116.49 13.0774 127.225 22.1532 136.291C29.602 143.728 39.2396 145.669 50.7938 146.014ZM43.3305 57.0295C68.0237 56.7138 92.4835 57.657 117.106 56.0056C117.175 54.7737 117.27 53.7878 117.273 52.8013C117.277 51.826 117.187 50.8499 117.142 49.9245C108.893 48.5915 48.9651 46.7467 43.3324 47.6852L43.3305 57.0295ZM120.613 139.203C118.513 141.085 117.611 143.075 118.572 144.462C118.925 144.914 119.368 145.287 119.873 145.556C120.378 145.826 120.935 145.986 121.506 146.026C122.306 146.022 123.541 144.98 123.815 144.145C124.695 141.5 122.616 140.426 120.615 139.203H120.613Z" fill="black"/>
<path d="M49.0699 134.267C45.0268 133.434 40.8282 133.045 36.9702 131.686C24.8483 127.42 19.2314 114.49 24.1533 102.637C27.0103 95.7588 32.3194 92.1049 39.6172 90.6164C44.8662 89.4389 50.3128 89.4586 55.5531 90.6735C60.4459 91.8424 64.7499 94.7441 67.6683 98.8416C70.5871 102.939 71.9234 107.954 71.4298 112.961C71.2743 114.974 70.9559 116.972 70.4775 118.933C68.2741 127.138 62.8529 131.88 54.522 133.312C52.7584 133.616 50.9615 133.724 49.1802 133.922L49.0699 134.267ZM48.0447 125.75L48.1509 125.349C49.7156 125.243 51.2902 125.218 52.8411 125.015C56.0079 124.598 58.7928 123.139 60.2781 120.371C64.4577 112.58 62.4486 103.128 53.5178 100.196C49.5585 99.007 45.524 98.0842 41.4412 97.4344C40.1702 97.1765 38.8552 97.2362 37.6128 97.6083C36.3704 97.9805 35.2391 98.6539 34.3193 99.5682C28.3145 105.488 28.0612 119.221 38.6564 123.54C41.5995 124.737 44.9054 125.036 48.0447 125.748V125.75Z" fill="black"/>
</g>
<defs>
<clipPath id="clip0">
<rect width="156.208" height="155.552" fill="white" transform="translate(0.536865 0.636353)"/>
</clipPath>
</defs>
</svg>

<svg xmlns="http://www.w3.org/2000/svg" width="157" height="157" fill="none" viewBox="0 0 157 157"><g fill="#000" clip-path="url(#a)"><path d="M43.673 38.797c12.052.221 23.721.362 35.386.668 13.245.347 26.487.827 39.729 1.281 4.419.153 6.038 1.46 6.214 5.81.401 10.092.816 20.198.684 30.292-.119 9.081-.957 18.154-1.476 27.23-.013.221-.005.444 0 .666.065 2.463-.586 5.279.403 7.285.9 1.825 3.728 2.608 5.448 4.142 3.343 2.986 6.546 6.132 9.725 9.294 2.635 2.62 2.552 2.6 5.984 1.098a39.6 39.6 0 0 1 6.315-2.207c1.578-.394 3.234-.051 3.994 1.687s.426 3.576-1.161 4.504a109 109 0 0 1-11.289 5.85c-1.878.824-3.713-.354-5.138-1.765-2.792-2.764-5.534-5.579-8.34-8.329-1.579-1.548-3.245-3.009-5.474-5.064l.825 11.153c.935.536 1.929 1.04 2.854 1.648 5.579 3.668 6.749 9.636 2.947 15.127-2.908 4.2-6.994 5.926-11.966 5.067-4.286-.741-7.49-3.111-8.55-7.545-1.065-4.458.621-8.139 3.783-11.234a22 22 0 0 1 2.156-1.691v-12.528h-28.14c-.59 2.374-1.056 4.784-1.799 7.103-3.191 9.958-8.633 18.199-18.161 23.206-5.487 2.882-11.453 3.904-17.547 4.089-13.345.409-25.932-2.236-35.686-11.95-12.318-12.269-18.236-26.845-12.84-44.356 2.305-7.482 6.965-13.554 12.98-18.489 5.227-4.287 10.884-7.922 17.481-9.834q.928-.363 1.793-.853c0-3.508-.011-7.094 0-10.68.05-13.027.047-26.056.227-39.08.03-2.255-.835-3.3-2.779-3.877q-9.984-2.964-19.962-5.946c-.858-.256-1.746-.434-2.573-.766C6.92 8.68 5.546 6.597 6.14 4.48 6.8 2.13 9.18.817 12.092 1.39c2.084.411 4.127 1.042 6.18 1.608 4.967 1.37 9.957 2.664 14.88 4.18a43 43 0 0 1 7.123 2.954c2.87 1.487 3.916 3.98 3.751 7.27-.336 6.724-.407 13.463-.568 20.197q.043.61.215 1.198m73.962 25.987c-25.252 1.873-50.117.069-75.188.181l-.25 4.326c3.897.675 7.398 1.602 10.944 1.842 16.99 1.153 31.539 15.124 34.95 31.275.712 3.368 1.03 6.819 1.517 10.142h27.132zm-66.841 81.23c1.585-.177 4.616-.367 7.59-.885 4.041-.705 7.784-2.251 10.685-5.264 3.949-4.099 6.937-8.813 8.222-14.429a49.1 49.1 0 0 0 .989-18.368c-1.728-11.544-8.17-19.534-18.765-23.928-4.172-1.73-8.873-2.17-13.315-3.271-9.648-2.392-17.541.83-24.568 7.35-4.878 4.526-8.827 9.617-10.333 16.173-3.01 13.098 1.778 23.833 10.854 32.899 7.449 7.437 17.087 9.378 28.64 9.723M43.33 57.029c24.693-.315 49.153.628 73.775-1.023.069-1.232.164-2.218.167-3.205.004-.975-.086-1.951-.131-2.876-8.249-1.333-68.177-3.178-73.81-2.24zm77.282 82.174c-2.1 1.882-3.002 3.872-2.041 5.259a4.1 4.1 0 0 0 2.934 1.564c.8-.004 2.035-1.046 2.309-1.881.88-2.645-1.199-3.719-3.2-4.942z"/><path d="M49.07 134.267c-4.043-.833-8.242-1.222-12.1-2.581-12.122-4.266-17.739-17.196-12.817-29.049 2.857-6.878 8.166-10.532 15.464-12.02a35.8 35.8 0 0 1 15.936.056 20.81 20.81 0 0 1 15.877 22.288 37 37 0 0 1-.953 5.972c-2.203 8.205-7.624 12.947-15.955 14.379-1.764.304-3.56.412-5.342.61zm-1.025-8.517.106-.401c1.565-.106 3.14-.131 4.69-.334 3.167-.417 5.952-1.876 7.437-4.644 4.18-7.791 2.17-17.243-6.76-20.175a93 93 0 0 0-12.077-2.762 7.88 7.88 0 0 0-7.122 2.134c-6.005 5.92-6.258 19.653 4.337 23.972 2.944 1.197 6.25 1.496 9.389 2.208z"/></g><defs><clipPath id="a"><path fill="#fff" d="M.537.636h156.208v155.552H.537z"/></clipPath></defs></svg>
